X:1
T:(Lux aeterna)
T:harm. pr. Abel Di Marco
T:Antiphona ad Communionem
T:(Lux aeterna)
T:Derechos reservados. © A. Di Marco. ASCAP 3506300. Se permite el uso y duplicacion de este material solo con fines Pastorales. Prohihido su uso con fines economicos.
T:Derechos reservados. © A. Di Marco. ASCAP 3506300. Se permite el uso y duplicacion de este material solo con fines Pastorales. Prohihido su uso con fines economicos.
T:Derechos reservados. © A. Di Marco. ASCAP 3506300. Se permite el uso y duplicacion de este material solo con fines Pastorales. Prohihido su uso con fines economicos.
T:Derechos reservados. © A. Di Marco. ASCAP 3506300. Se permite el uso y duplicacion de este material solo con fines Pastorales. Prohihido su uso con fines economicos.
T:Derechos reservados. © A. Di Marco. ASCAP 3506300. Se permite el uso y duplicacion de este material solo con fines Pastorales. Prohihido su uso con fines economicos.
T:Derechos reservados. © A. Di Marco. ASCAP 3506300. Se permite el uso y duplicacion de este material solo con fines Pastorales. Prohihido su uso con fines economicos.
C:harm. pr. Abel Di Marco
Z:Derechos reservados. © A. Di Marco. ASCAP 3506300. Se permite el uso y duplicacion de este material solo
Z:con fines Pastorales. Prohihido su uso con fines economicos.
%%score { ( 1 2 ) | ( 3 4 ) }
L:1/8
Q:1/4=80
M:4/4
K:F
V:1 treble nm="P1"
V:2 treble 
V:3 bass 
V:4 bass 
V:1
"^(4 Esdrae 2, 34-35)""^Andante" (F2 G)F !tenuto!F2 (F"^-"GA)(A G2"^-" F"^-"G) (G2 F2) (FG"^-"A) (AG)A (AcA G2 ABAG)F (F"^-"G A"^-"G"^-"F"^-"G) (G2 F2) | %1
w: Re- * qui- em ae- * * ter- * * * nam * do- * * na * e- i(s) _ _ _ _ _ _ , Do- mi- * * * * * ne, *|
 (AG) (AG F)A (GA) (GF) F2 (AG)A (AcA G2 ABAG) (F"^-"G A"^-"G"^-"F"^-"G) (G2 F2)!fine! |] %2
w: et * * lux * per- pe- * tu- * a lu- * ce- at _ _ _ _ _ _ _ e- * * * * * i(s). *|
"^(Ps. 64, 2-3)" (FG) (GF) (GA)AAAAAG A2 FGAAAAAAAGBG A2 | %3
w: Te * de- * cet * hym- nus, De- us, in Si- on, et ti- bi red- de- tur vo- tum in Je- ru- sa- lem:|
 F (GA)A AAAAAA A2 AAAAF (GA)GF F2!D.C.! |: (F"^-"GA"^-"B) A (A2 G2) (A"^-"GF"^-"E"^-"F) (GF) F2 :: %5
w: ex- au- * di o- ra- ti- o- nem me- am, ad te om- nis ca- ro * ve- ni- et.|Ky- * * * ri- e _ e- * * * * lei- * son.|
 (F"^-"GA"^-"B) (A2 G2) (A"^-"GF"^-"E"^-"F) (GF) F2 :| %6
w: Chri- * * * ste _ e- * * * * lei- * son.|
 (F"^-"GA"^-"B) A (A2 G2) (A"^-"GF"^-"E"^-"F) (GF) F2 || %7
w: Ky- * * * ri- e _ e- * * * * lei- * son.|
 cF F2 (cB cdcBA G2) (AG"^-"F"^-"E"^-"F) (GF) F2 |][K:G] B (B2 A2) B (B2 A2) GABBBBBBA B2 | %9
w: Ky- ri- e _ _ _ _ _ _ _ _ e- * * * * lei- * son.|San- ctus, _ San- ctus, _ San- ctus Do- mi- nus De- us Sa- ba- oth.|
 GABB BBB A2 cBBA G2 | GABB BA B2 || GAB B2 BBBAcBABA G2 | E (GA)A AB (AG) (G2 A2) |]: %13
w: Ple- ni sunt coe- li et ter- ra glo- ri- a tu- a.|Ho- san- na in ex- cel- sis.|Be- ne- dic- tus qui ve- nit in no- mi- ne Do- mi- ni.|Ho- san- * na in ex- cel- * sis. *|
[K:C] GG (GA) A2 AAAGAFG A2 GABG (AG) G2 :| GG (GA) A2 AAAGAFG A2 GABG (AG) G2 |] %15
w: 1.\-2. nus De- * i, qui tol- lis pec- ca- ta mun- di: mi- se- re- re no- * bis.|3. nus De- * i, qui tol- lis pec- ca- ta mun- di: do- na no- bis pa- * cem.|
"^Instrument change" A (GF) (G A) G2 AcBcAG (FG) G2 | %16
w: Lux ae- * ter- * na lu- ce- at e- i(s), Do- mi- * ne,|
"^Instrument change" A"^Instrument change"cBc ABcA (GA G2) EF (GA)A G2 || %17
w: cum San- ctis tu- is in ae- ter- num, _ _ qui- a pi- * us es.|
"^Instrument change" G"^Instrument change"Acc cccccddc c2 AccccccBcA G2 || %18
w: Re- qui- em ae- ter- nam do- na e- i(s), Do- mi- ne, et lux per- pe- tu- a lu- ce- at e- i(s),|
"^Instrument change" A"^Instrument change"cBc ABcA (GA G2) EF (GA)A G2 |] %19
w: cum San- ctis tu- is in ae- ter- num, _ _ qui- a pi- * us es.|
V:2
 C4- C2 D3 D4- D E2 C2 x22 E2 C2 | x12 E6 D8 E6 C2 |] x6 F4- FE F2 DE F6 D3 E F2 | %3
 x3 F6 F3 E4 D3 EF C2 |: x7 E2 D4- D EF C2 :: x6 E2 D4- D EF C2 :| x7 E2 D4- D EF C2 || %7
 x4 F6- F E2 C4- C D2 C2 |][K:G] G3 F2 G3 F2 EF G6 F G2 | EF G4- G D2 G3 F D2 | EF G3 F G2 || x16 | %12
 B,3 D3 E2 D2 E2 |]:[K:C] E2 D2 E3 C3 D2 E- E2 D4 E2 D2 :| E2 D2 E3 C3 D2 E E2 D4 E2 D2 |] x17 | %16
 x12 C3 FE D2 || GF G4 A4 FE- E2 FA- A4- AGA^F G2 || F6 EC- C4 CB,EFD D2 |] %19
V:3
 A,4- A,2 A,3 B,4- B, G,2 A,2 A, B,C CB,C CA,C B,2 C D8- D2 C2 A,2 | %1
 CB, CB, A, CB,C [B,D]2 [A,C]2 A,6 B,6 A,2 B,4 C2 A,2 |] A, B,2 A, B,C C8 A,C- C6 D3 C- C2 | %3
 A, B,C C6- C3 A,4 B,4- B, A,2 |: A,B,CD C- C4 B,6- B, A,2 :: A,B,CD C2- C2 B,6- B, A,2 :| %6
 A,B,CD C- C4 B,6 B, A,2 || A,4 F,3 B,4 C2 A,4- A, B,2 A,2 |][K:G] D3- D2 D3- D2 B, D8- D2 | %9
 B, D6- D2 C3 D B,2 | B,D- D4- D2 || B,CD D2 DDDC EDCDC B,2 | G,3 F,3 A,2 B,2 C2 |]: %13
[K:C] C2 D2 C3 F,2 G, F,2 C- C2 G,4- G,A, B,2 :| C2 D2 C3 F,2 G, F,2 C C2 G,4- G,A, B,2 |] %15
 CB,A, B, C B,2 CEDECB,A,B, B,2 | CEDE CD ECB,C B,2 G,3 C2 B,2 || %17
 B,D C4 E2 F2 D2 C2 C6- C D2 C B,2 || C4- C G,2 x5 G,2 C3 B,2 |] %19
V:4
 F,4- F,2 D,3 B,,4- B,, C,2 F,,2 F,8- F,4 G,3 D,3 B,,4 C,2 F,2 | %1
 F,8- F,4 C,6 B,,2 A,, G,,3 D,2 C,6 F,2 |] F,8- F,3 C, F,2 D,C, F,6 B,,3 C, F,2 | %3
 F,3 F,6- F,3 C,4 B,,3 C,2 F,2 |: F,4- F,3 C,2 B,,4- B,, C,2 F,2 :: F,6 C,2 B,,4- B,, C,2 F,2 :| %6
 F,4- F,3 C,2 B,,4- B,, C,2 F,2 || F,4 A,,3 B,,4 C,2 F,4- F, B,,2 F,2 |] %8
[K:G] G,3 D,2 G,3 D,2 E,D, G,6 D, G,2 | E,D, G,4- G, F,2 E,3 D, G,2 | E,D, G,3 D, G,2 || %11
 G,8- G,6- G,2 | E,3 D,3 C,2 B,,2 A,,2 |]:[K:C] C,2 B,,2 A,,3 F,2 E, D,2 C, A,,2 B,,4 C,2 G,,2 :| %14
 C,2 B,,2 A,,3 F,2 E, D,2 C, A,,2 B,,4 C,2 G,,2 |] F,3 G,4 A,4 F,E, D,2 G,2 | %16
 A,4 F,D, C,F, G,4 C,D,E, F,2 G,2 || G,F, E,4 A,2 F,2 G,2 C,2 F,6 ^F,3 D, G,2 || %18
 F,A,G,A, F, D,C,F,E,F, E,2 C,D,E,F,^F, G,2 |] %19

